X: 20906
T: Josephine Keegan's
R: reel
M: 4/4
K: Gmajor
dGBG d2 (3gfe|dGcB ADFA|dGBG d3g|ecAg (3fed (3gfe|
dGBG d2 (3gfe|dGBG ABce|dBBA Bcdg|ecAB cdef||
g2dg BdG2|gGBd eAA2|g2dg BdG2|cBAB cdef|
g2dg BdG2|gGBd eAAd|(3gfe (3fed (3edc (3BAG|(3efg (3fed efge||

